X:186
T: SCHAETZCHEN REICH MIR DEINE HAND
N: E0771
O: Europa, Mitteleuropa, Deutschland, Niederrhein
R: Abschieds - Lied. Liebe
M: 2/4
L: 1/16
K: F
 | F2A2c2c2 | c2c2A2F2 |
d3cB2A2 | G2c2c4 |
G3BB2A2 | A3GG2F2 |
F2d2c2B2 | A2G2F4 |
G3BB2A2 | A3GG2F2 |
F2d2c2B2 | A2G2F4

